X: 1
T: Gordon Campbell's Mess
M: 4/4
L: 1/8
R: reel
K: Dmaj
dDFA (3BBB Bd|A2 AB AFED|dDFA (3BBB Bd|AFEF (3DDD D2|
dDFA (3BBB Bd|A2 AB AFED|dDFA (3ddd dB|AFEF (3DDD D2||
|:(3DDD AD BDAD|(3FFF FA AFED|(3DDD AD BDAD|dBAF (3DDD D2:|
|:DA (3AAA DA (3AAA|GBEG BDGB|DA (3AAA DA (3AAA|GBEG (3BBB B2:|
